X:1
T:Avondale
M:3/4
L:1/8
K:D
 A,2| DD D3 F| AF D3 F| GF E3 D| CE A,3 A,| DF G2 FG| AF D3 A| GE C3 A,|\
B,-D D4|
